;FLAVOR:Marlin
;TIME:2179
;Filament used: 1.04052m
;Layer height: 0.16
;MINX:83.1
;MINY:94.561
;MINZ:0.2
;MAXX:136.9
;MAXY:132.361
;MAXZ:11.36
;Generated with Cura_SteamEngine 4.7.1
M140 S70
M105
M190 S70
M104 S220
M105
M109 S220
M82 ;absolute extrusion mode
; Ender 3 Custom Start G-code
G92 E0 ; Reset Extruder
G28 ; Home all axes
G1 Z2.0 F3000 ; Move Z Axis up little to prevent scratching of Heat Bed
G1 X0.1 Y20 Z0.3 F5000.0 ; Move to start position
G1 X0.1 Y200.0 Z0.3 F1500.0 E15 ; Draw the first line
G1 X0.4 Y200.0 Z0.3 F5000.0 ; Move to side a little
G1 X0.4 Y20 Z0.3 F1500.0 E30 ; Draw the second line
G92 E0 ; Reset Extruder
G1 Z2.0 F3000 ; Move Z Axis up little to prevent scratching of Heat Bed
G1 X5 Y20 Z0.3 F5000.0 ; Move over to prevent blob squish
G92 E0
G92 E0
G1 F1500 E-6.5
;LAYER_COUNT:58
;LAYER:0
M107
G0 F6000 X87.135 Y97.159 Z0.2
;TYPE:SKIRT
G1 F1500 E0
G1 F900 X87.877 Y96.585 E0.0312
G1 X88.666 Y96.078 E0.06239
G1 X89.494 Y95.639 E0.09357
G1 X90.358 Y95.272 E0.12479
G1 X91.249 Y94.98 E0.15597
G1 X92.162 Y94.766 E0.18716
G1 X93.09 Y94.629 E0.21836
G1 X93.851 Y94.577 E0.24373
G1 X93.999 Y94.572 E0.24866
G1 X94.236 Y94.567 E0.25654
G1 X94.779 Y94.561 E0.2746
G1 X125.233 Y94.562 E1.28751
G1 X125.935 Y94.572 E1.31086
G1 X126.871 Y94.625 E1.34204
G1 X127.799 Y94.758 E1.37322
G1 X128.713 Y94.97 E1.40443
G1 X129.606 Y95.258 E1.43564
G1 X130.47 Y95.622 E1.46682
G1 X131.301 Y96.058 E1.49803
G1 X132.091 Y96.563 E1.52922
G1 X132.835 Y97.133 E1.56039
G1 X133.556 Y97.793 E1.5929
G1 X133.668 Y97.905 E1.59817
G1 X134.302 Y98.596 E1.62936
G1 X134.876 Y99.338 E1.66056
G1 X135.383 Y100.127 E1.69175
G1 X135.822 Y100.955 E1.72292
G1 X136.189 Y101.819 E1.75415
G1 X136.481 Y102.71 E1.78533
G1 X136.695 Y103.623 E1.81652
G1 X136.832 Y104.551 E1.84772
G1 X136.883 Y105.282 E1.87209
G1 X136.888 Y105.419 E1.87665
G1 X136.894 Y105.674 E1.88514
G1 X136.9 Y106.197 E1.90253
G1 X136.899 Y120.661 E2.38361
G1 X136.889 Y121.39 E2.40786
G1 X136.836 Y122.326 E2.43904
G1 X136.704 Y123.255 E2.47025
G1 X136.493 Y124.169 E2.50145
G1 X136.205 Y125.061 E2.53262
G1 X135.842 Y125.926 E2.56382
G1 X135.406 Y126.757 E2.59503
G1 X134.902 Y127.547 E2.6262
G1 X134.331 Y128.292 E2.65742
G1 X133.668 Y129.017 E2.6901
G1 X133.556 Y129.129 E2.69537
G1 X132.865 Y129.763 E2.72656
G1 X132.123 Y130.337 E2.75776
G1 X131.334 Y130.844 E2.78895
G1 X130.506 Y131.283 E2.82012
G1 X129.642 Y131.65 E2.85134
G1 X128.751 Y131.942 E2.88253
G1 X127.838 Y132.156 E2.91372
G1 X126.91 Y132.293 E2.94492
G1 X126.149 Y132.345 E2.97029
G1 X126.001 Y132.35 E2.97521
G1 X125.764 Y132.355 E2.9831
G1 X125.221 Y132.361 E3.00116
G1 X94.767 Y132.36 E4.01406
G1 X94.065 Y132.35 E4.03742
G1 X93.129 Y132.297 E4.0686
G1 X92.201 Y132.164 E4.09978
G1 X91.287 Y131.952 E4.13098
G1 X90.394 Y131.664 E4.16219
G1 X89.53 Y131.3 E4.19337
G1 X88.699 Y130.864 E4.22459
G1 X87.909 Y130.359 E4.25577
G1 X87.165 Y129.789 E4.28695
G1 X86.444 Y129.129 E4.31946
G1 X86.332 Y129.017 E4.32472
G1 X85.698 Y128.326 E4.35591
G1 X85.124 Y127.584 E4.38712
G1 X84.617 Y126.795 E4.41831
G1 X84.178 Y125.967 E4.44948
G1 X83.811 Y125.103 E4.4807
G1 X83.519 Y124.212 E4.51189
G1 X83.305 Y123.299 E4.54308
G1 X83.168 Y122.371 E4.57428
G1 X83.116 Y121.61 E4.59965
G1 X83.111 Y121.462 E4.60457
G1 X83.106 Y121.213 E4.61286
G1 X83.1 Y120.639 E4.63195
G1 X83.101 Y106.204 E5.11206
G1 X83.111 Y105.522 E5.13474
G1 X83.165 Y104.585 E5.16596
G1 X83.298 Y103.657 E5.19714
G1 X83.51 Y102.743 E5.22835
G1 X83.799 Y101.851 E5.25953
G1 X84.163 Y100.987 E5.29072
G1 X84.599 Y100.157 E5.3219
G1 X85.104 Y99.366 E5.35311
G1 X85.675 Y98.622 E5.38431
G1 X86.332 Y97.905 E5.41665
G1 X86.444 Y97.793 E5.42192
G1 X87.135 Y97.159 E5.45311
G0 F6000 X87.405 Y97.454
G1 F900 X88.135 Y96.893 E5.48373
G1 X88.911 Y96.397 E5.51436
G1 X89.727 Y95.971 E5.54498
G1 X90.577 Y95.617 E5.57561
G1 X91.455 Y95.339 E5.60624
G1 X92.353 Y95.137 E5.63685
G1 X93.266 Y95.014 E5.66749
G1 X93.864 Y94.977 E5.68742
G1 X94.012 Y94.972 E5.69234
G1 X94.24 Y94.967 E5.69993
G1 X94.779 Y94.961 E5.71786
G1 X125.076 Y94.961 E6.72554
G1 X125.929 Y94.972 E6.75391
G1 X126.848 Y95.025 E6.78453
G1 X127.759 Y95.158 E6.81515
G1 X128.655 Y95.369 E6.84577
G1 X129.53 Y95.657 E6.87641
G1 X130.376 Y96.02 E6.90702
G1 X131.187 Y96.455 E6.93763
G1 X131.958 Y96.959 E6.96827
G1 X132.682 Y97.527 E6.99888
G1 X133.273 Y98.076 E7.02571
G1 X133.385 Y98.188 E7.03097
G1 X134.007 Y98.866 E7.06158
G1 X134.568 Y99.596 E7.0922
G1 X135.064 Y100.372 E7.12283
G1 X135.49 Y101.188 E7.15345
G1 X135.844 Y102.038 E7.18407
G1 X136.122 Y102.916 E7.2147
G1 X136.324 Y103.814 E7.24532
G1 X136.447 Y104.727 E7.27596
G1 X136.483 Y105.296 E7.29492
G1 X136.488 Y105.433 E7.29948
G1 X136.494 Y105.679 E7.30766
G1 X136.5 Y106.197 E7.32489
G1 X136.499 Y120.655 E7.80577
G1 X136.489 Y121.384 E7.83002
G1 X136.436 Y122.304 E7.86067
G1 X136.304 Y123.215 E7.89128
G1 X136.094 Y124.111 E7.92189
G1 X135.806 Y124.985 E7.9525
G1 X135.443 Y125.832 E7.98315
G1 X135.009 Y126.643 E8.01374
G1 X134.505 Y127.414 E8.04438
G1 X133.937 Y128.139 E8.07501
G1 X133.385 Y128.734 E8.10201
G1 X133.273 Y128.846 E8.10727
G1 X132.595 Y129.468 E8.13788
G1 X131.865 Y130.029 E8.1685
G1 X131.089 Y130.525 E8.19913
G1 X130.273 Y130.951 E8.22975
G1 X129.423 Y131.305 E8.26037
G1 X128.545 Y131.583 E8.291
G1 X127.647 Y131.785 E8.32162
G1 X126.734 Y131.908 E8.35226
G1 X126.136 Y131.945 E8.37218
G1 X125.988 Y131.95 E8.37711
G1 X125.76 Y131.955 E8.3847
G1 X125.221 Y131.961 E8.40262
G1 X94.773 Y131.96 E9.41533
G1 X94.071 Y131.95 E9.43868
G1 X93.152 Y131.897 E9.4693
G1 X92.241 Y131.764 E9.49992
G1 X91.345 Y131.553 E9.53053
G1 X90.47 Y131.265 E9.56117
G1 X89.624 Y130.902 E9.59179
G1 X88.813 Y130.467 E9.6224
G1 X88.042 Y129.963 E9.65304
G1 X87.318 Y129.395 E9.68364
G1 X86.727 Y128.846 E9.71047
G1 X86.615 Y128.734 E9.71574
G1 X85.993 Y128.056 E9.74634
G1 X85.432 Y127.326 E9.77696
G1 X84.936 Y126.55 E9.8076
G1 X84.51 Y125.734 E9.83821
G1 X84.156 Y124.884 E9.86884
G1 X83.878 Y124.006 E9.89947
G1 X83.676 Y123.108 E9.93008
G1 X83.553 Y122.195 E9.96072
G1 X83.516 Y121.597 E9.98065
G1 X83.511 Y121.449 E9.98558
G1 X83.506 Y121.208 E9.99359
G1 X83.5 Y120.639 E10.01252
G1 X83.501 Y106.21 E10.49243
G1 X83.511 Y105.528 E10.51512
G1 X83.565 Y104.608 E10.54577
G1 X83.698 Y103.698 E10.57636
G1 X83.909 Y102.801 E10.607
G1 X84.198 Y101.927 E10.63762
G1 X84.561 Y101.081 E10.66824
G1 X84.996 Y100.27 E10.69885
G1 X85.5 Y99.5 E10.72946
G1 X86.069 Y98.776 E10.76009
G1 X86.615 Y98.188 E10.78677
G1 X86.727 Y98.076 E10.79204
G1 X87.405 Y97.454 E10.82264
G0 F6000 X87.676 Y97.749
G1 F900 X88.393 Y97.2 E10.85268
G1 X89.157 Y96.718 E10.88273
G1 X89.96 Y96.304 E10.91277
G1 X90.796 Y95.964 E10.94279
G1 X91.659 Y95.698 E10.97283
G1 X92.542 Y95.51 E11.00285
G1 X93.878 Y95.377 E11.04751
G1 X94.245 Y95.367 E11.05972
G1 X94.779 Y95.361 E11.07748
G1 X125.076 Y95.361 E12.08516
G1 X125.923 Y95.372 E12.11334
G1 X126.825 Y95.425 E12.14339
G1 X127.718 Y95.557 E12.17341
G1 X128.596 Y95.768 E12.20345
G1 X129.452 Y96.056 E12.23349
G1 X130.28 Y96.418 E12.26354
G1 X131.072 Y96.852 E12.29358
G1 X131.822 Y97.355 E12.32362
G1 X132.525 Y97.921 E12.35364
G1 X132.99 Y98.359 E12.37488
G1 X133.102 Y98.471 E12.38015
G1 X133.712 Y99.137 E12.41019
G1 X134.261 Y99.854 E12.44022
G1 X134.743 Y100.618 E12.47027
G1 X135.157 Y101.421 E12.50032
G1 X135.497 Y102.257 E12.53034
G1 X135.763 Y103.12 E12.56037
G1 X135.951 Y104.003 E12.5904
G1 X136.083 Y105.311 E12.63412
G1 X136.094 Y105.685 E12.64657
G1 X136.1 Y106.197 E12.6636
G1 X136.099 Y120.65 E13.14431
G1 X136.089 Y121.379 E13.16856
G1 X136.037 Y122.28 E13.19857
G1 X135.905 Y123.174 E13.22863
G1 X135.694 Y124.052 E13.25866
G1 X135.407 Y124.908 E13.28869
G1 X135.045 Y125.736 E13.31875
G1 X134.612 Y126.528 E13.34877
G1 X134.11 Y127.279 E13.37882
G1 X133.543 Y127.982 E13.40885
G1 X133.102 Y128.451 E13.43027
G1 X132.99 Y128.563 E13.43553
G1 X132.324 Y129.173 E13.46557
G1 X131.607 Y129.722 E13.49561
G1 X130.843 Y130.204 E13.52565
G1 X130.04 Y130.618 E13.5557
G1 X129.204 Y130.958 E13.58572
G1 X128.341 Y131.224 E13.61576
G1 X127.458 Y131.412 E13.64578
G1 X126.122 Y131.545 E13.69044
G1 X125.755 Y131.555 E13.70265
G1 X125.221 Y131.561 E13.72041
G1 X94.779 Y131.56 E14.73292
G1 X94.077 Y131.55 E14.75627
G1 X93.175 Y131.497 E14.78632
G1 X92.282 Y131.365 E14.81634
G1 X91.404 Y131.154 E14.84638
G1 X90.548 Y130.866 E14.87642
G1 X89.72 Y130.504 E14.90647
G1 X88.928 Y130.07 E14.93651
G1 X88.178 Y129.567 E14.96655
G1 X87.475 Y129.001 E14.99656
G1 X87.01 Y128.563 E15.01781
G1 X86.898 Y128.451 E15.02308
G1 X86.288 Y127.785 E15.05312
G1 X85.739 Y127.068 E15.08315
G1 X85.257 Y126.304 E15.1132
G1 X84.843 Y125.501 E15.14325
G1 X84.503 Y124.665 E15.17326
G1 X84.237 Y123.802 E15.2033
G1 X84.049 Y122.919 E15.23333
G1 X83.916 Y121.583 E15.27798
G1 X83.911 Y121.435 E15.28291
G1 X83.906 Y121.204 E15.29059
G1 X83.9 Y120.639 E15.30938
G1 X83.901 Y106.215 E15.78913
G1 X83.911 Y105.533 E15.81181
G1 X83.964 Y104.632 E15.84183
G1 X84.097 Y103.739 E15.87186
G1 X84.308 Y102.861 E15.9019
G1 X84.596 Y102.005 E15.93194
G1 X84.959 Y101.178 E15.96197
G1 X85.393 Y100.386 E15.99201
G1 X85.896 Y99.636 E16.02205
G1 X86.463 Y98.933 E16.05209
G1 X86.898 Y98.471 E16.07319
G1 X87.01 Y98.359 E16.07846
G1 X87.676 Y97.749 E16.1085
G1 F1500 E9.6085
G0 F6000 X107.775 Y106.819
G0 X108.419 Y107.394
G0 X111.748 Y111.508
G0 X112.325 Y112.004
G0 X112.875 Y112.278
G0 X117.67 Y113.462
G1 F1500 E16.1085
G1 F900 X117.909 Y113.25 E16.11913
G1 X118.05 Y113.106 E16.12583
G1 X118.191 Y113.25 E16.13253
G1 X118.43 Y113.462 E16.14316
G1 X118.191 Y113.673 E16.15376
G1 X118.05 Y113.817 E16.16046
G1 X117.909 Y113.673 E16.16717
G1 X117.67 Y113.462 E16.17777
G0 F6000 X117.643 Y113.972
G1 F900 X117.14 Y113.526 E16.20013
G1 X117.058 Y113.462 E16.20359
G1 X117.14 Y113.397 E16.20707
G1 X117.643 Y112.951 E16.22943
G1 X117.821 Y112.769 E16.2379
G1 X117.9 Y112.676 E16.24196
G1 X118.011 Y112.531 E16.24803
G1 X118.05 Y112.474 E16.25033
G1 X118.089 Y112.531 E16.25262
G1 X118.2 Y112.676 E16.2587
G1 X118.279 Y112.769 E16.26276
G1 X118.457 Y112.951 E16.27122
G1 X118.96 Y113.397 E16.29358
G1 X119.042 Y113.462 E16.29706
G1 X118.96 Y113.526 E16.30052
G1 X118.457 Y113.972 E16.32288
G1 X118.279 Y114.154 E16.33135
G1 X118.2 Y114.247 E16.33541
G1 X118.089 Y114.392 E16.34148
G1 X118.05 Y114.449 E16.34378
G1 X118.011 Y114.392 E16.34607
G1 X117.9 Y114.247 E16.35215
G1 X117.821 Y114.154 E16.35621
G1 X117.643 Y113.972 E16.36467
G0 F6000 X117.378 Y114.271
G1 F900 X116.875 Y113.825 E16.38703
G1 X116.749 Y113.726 E16.39236
G1 X116.649 Y113.656 E16.39642
G1 X116.495 Y113.563 E16.40241
G1 X116.301 Y113.462 E16.40968
G1 X116.494 Y113.361 E16.41693
G1 X116.649 Y113.267 E16.42296
G1 X116.749 Y113.197 E16.42702
G1 X116.875 Y113.098 E16.43234
G1 X117.378 Y112.652 E16.4547
G1 X117.516 Y112.51 E16.46129
G1 X117.595 Y112.417 E16.46535
G1 X117.681 Y112.305 E16.47005
G1 X118.05 Y111.769 E16.49169
G1 X118.419 Y112.305 E16.51333
G1 X118.505 Y112.417 E16.51803
G1 X118.584 Y112.51 E16.52209
G1 X118.722 Y112.652 E16.52867
G1 X119.225 Y113.098 E16.55103
G1 X119.351 Y113.197 E16.55636
G1 X119.451 Y113.267 E16.56042
G1 X119.606 Y113.361 E16.56645
G1 X119.799 Y113.462 E16.5737
G1 X119.605 Y113.563 E16.58097
G1 X119.451 Y113.656 E16.58695
G1 X119.351 Y113.726 E16.59101
G1 X119.225 Y113.825 E16.59634
G1 X118.722 Y114.271 E16.6187
G1 X118.584 Y114.413 E16.62529
G1 X118.505 Y114.506 E16.62935
G1 X118.419 Y114.618 E16.63404
G1 X118.05 Y115.154 E16.65569
G1 X117.681 Y114.618 E16.67733
G1 X117.595 Y114.506 E16.68203
G1 X117.516 Y114.413 E16.68609
G1 X117.378 Y114.271 E16.69267
G0 F6000 X117.112 Y114.571
G1 F900 X116.609 Y114.125 E16.71503
G1 X116.519 Y114.054 E16.71884
G1 X116.419 Y113.984 E16.7229
G1 X116.31 Y113.917 E16.72716
G1 X115.716 Y113.606 E16.74946
G1 X115.588 Y113.55 E16.75411
G1 X115.476 Y113.51 E16.75806
G1 X115.381 Y113.481 E16.76137
G1 X115.302 Y113.461 E16.76408
G1 X115.372 Y113.444 E16.76647
G1 X115.464 Y113.417 E16.76966
G1 X115.578 Y113.377 E16.77368
G1 X115.71 Y113.319 E16.77848
G1 X116.309 Y113.006 E16.80095
G1 X116.419 Y112.939 E16.80524
G1 X116.519 Y112.869 E16.8093
G1 X116.609 Y112.798 E16.81311
G1 X117.112 Y112.352 E16.83547
G1 X117.211 Y112.251 E16.84017
G1 X117.29 Y112.158 E16.84423
G1 X117.352 Y112.078 E16.8476
G1 X117.727 Y111.533 E16.8696
G1 X117.797 Y111.413 E16.87422
G1 X117.851 Y111.305 E16.87824
G1 X117.891 Y111.215 E16.88151
G1 X118.05 Y110.799 E16.89633
G1 X118.209 Y111.215 E16.91114
G1 X118.249 Y111.305 E16.91442
G1 X118.303 Y111.413 E16.91843
G1 X118.373 Y111.533 E16.92305
G1 X118.748 Y112.078 E16.94506
G1 X118.81 Y112.158 E16.94842
G1 X118.889 Y112.251 E16.95248
G1 X118.988 Y112.352 E16.95718
G1 X119.491 Y112.798 E16.97954
G1 X119.581 Y112.869 E16.98336
G1 X119.681 Y112.939 E16.98742
G1 X119.791 Y113.006 E16.9917
G1 X120.39 Y113.319 E17.01418
G1 X120.522 Y113.377 E17.01897
G1 X120.636 Y113.417 E17.02299
G1 X120.728 Y113.444 E17.02618
G1 X120.798 Y113.461 E17.02858
G1 X120.719 Y113.481 E17.03129
G1 X120.624 Y113.51 E17.03459
G1 X120.512 Y113.55 E17.03855
G1 X120.384 Y113.606 E17.04319
G1 X119.79 Y113.917 E17.06549
G1 X119.681 Y113.984 E17.06975
G1 X119.581 Y114.054 E17.07381
G1 X119.491 Y114.125 E17.07762
G1 X118.988 Y114.571 E17.09998
G1 X118.889 Y114.672 E17.10469
G1 X118.81 Y114.765 E17.10874
G1 X118.748 Y114.845 E17.11211
G1 X118.373 Y115.39 E17.13411
G1 X118.303 Y115.51 E17.13873
G1 X118.249 Y115.618 E17.14275
G1 X118.209 Y115.708 E17.14603
G1 X118.05 Y116.124 E17.16084
G1 X117.891 Y115.708 E17.17565
G1 X117.851 Y115.618 E17.17893
G1 X117.797 Y115.51 E17.18294
G1 X117.727 Y115.39 E17.18756
G1 X117.352 Y114.845 E17.20957
G1 X117.29 Y114.765 E17.21293
G1 X117.211 Y114.672 E17.21699
G1 X117.112 Y114.571 E17.2217
G0 F6000 X116.847 Y114.87
G1 F900 X116.344 Y114.424 E17.24406
G1 X116.29 Y114.381 E17.24635
G1 X116.19 Y114.311 E17.25041
G1 X116.124 Y114.271 E17.25298
G1 X115.53 Y113.96 E17.27528
G1 X115.454 Y113.927 E17.27803
G1 X115.342 Y113.887 E17.28199
G1 X115.284 Y113.87 E17.284
G1 X114.647 Y113.712 E17.30583
G1 X114.577 Y113.699 E17.3082
G1 X114.457 Y113.684 E17.31222
G1 X114.383 Y113.679 E17.31469
G1 X113.717 Y113.679 E17.33684
G1 X113.643 Y113.684 E17.3393
G1 X113.523 Y113.699 E17.34333
G1 X113.453 Y113.712 E17.34569
G1 X112.816 Y113.87 E17.36752
G1 X112.758 Y113.887 E17.36953
G1 X112.646 Y113.927 E17.37349
G1 X112.57 Y113.96 E17.37624
G1 X111.976 Y114.271 E17.39855
G1 X111.91 Y114.311 E17.40111
G1 X111.81 Y114.381 E17.40517
G1 X111.756 Y114.424 E17.40747
G1 X111.253 Y114.87 E17.42983
G1 X111.194 Y114.931 E17.43265
G1 X111.115 Y115.024 E17.43671
G1 X111.078 Y115.072 E17.43872
G1 X110.703 Y115.617 E17.46073
G1 X110.66 Y115.689 E17.46352
G1 X110.606 Y115.797 E17.46753
G1 X110.583 Y115.851 E17.46948
G1 X110.351 Y116.458 E17.4911
G1 X110.328 Y116.529 E17.49358
G1 X110.299 Y116.647 E17.49762
G1 X110.286 Y116.718 E17.50002
G1 X110.206 Y117.379 E17.52217
G1 X110.202 Y117.451 E17.52457
G1 X110.202 Y117.571 E17.52856
G1 X110.206 Y117.643 E17.53096
G1 X110.286 Y118.304 E17.5531
G1 X110.299 Y118.374 E17.55547
G1 X110.328 Y118.493 E17.55954
G1 X110.351 Y118.565 E17.56206
G1 X110.583 Y119.172 E17.58367
G1 X110.606 Y119.226 E17.58562
G1 X110.66 Y119.334 E17.58964
G1 X110.703 Y119.406 E17.59243
G1 X111.078 Y119.951 E17.61443
G1 X111.115 Y119.999 E17.61645
G1 X111.194 Y120.092 E17.62051
G1 X111.253 Y120.153 E17.62333
G1 X111.756 Y120.599 E17.64569
G1 X111.81 Y120.642 E17.64798
G1 X111.91 Y120.712 E17.65204
G1 X111.993 Y120.761 E17.65525
G1 X108.107 Y120.761 E17.7845
G1 X108.19 Y120.712 E17.7877
G1 X108.29 Y120.642 E17.79176
G1 X108.344 Y120.599 E17.79406
G1 X108.847 Y120.153 E17.81642
G1 X108.906 Y120.092 E17.81924
G1 X108.985 Y119.999 E17.8233
G1 X109.022 Y119.951 E17.82532
G1 X109.397 Y119.406 E17.84732
G1 X109.44 Y119.334 E17.85011
G1 X109.494 Y119.226 E17.85412
G1 X109.517 Y119.172 E17.85608
G1 X109.749 Y118.565 E17.87769
G1 X109.772 Y118.493 E17.8802
G1 X109.801 Y118.374 E17.88428
G1 X109.814 Y118.304 E17.88665
G1 X109.894 Y117.643 E17.90879
G1 X109.898 Y117.571 E17.91119
G1 X109.898 Y117.451 E17.91518
G1 X109.894 Y117.379 E17.91758
G1 X109.814 Y116.718 E17.93972
