;FLAVOR:Marlin
;TIME:2157
;Filament used: 0.927932m
;Layer height: 0.16
;MINX:79.1
;MINY:77.1
;MINZ:0.2
;MAXX:140.9
;MAXY:140.9
;MAXZ:11.36
;Generated with Cura_SteamEngine 4.7.1
M140 S70
M105
M190 S70
M104 S220
M105
M109 S220
M82 ;absolute extrusion mode
; Ender 3 Custom Start G-code
G92 E0 ; Reset Extruder
G28 ; Home all axes
G1 Z2.0 F3000 ; Move Z Axis up little to prevent scratching of Heat Bed
G1 X0.1 Y20 Z0.3 F5000.0 ; Move to start position
G1 X0.1 Y200.0 Z0.3 F1500.0 E15 ; Draw the first line
G1 X0.4 Y200.0 Z0.3 F5000.0 ; Move to side a little
G1 X0.4 Y20 Z0.3 F1500.0 E30 ; Draw the second line
G92 E0 ; Reset Extruder
G1 Z2.0 F3000 ; Move Z Axis up little to prevent scratching of Heat Bed
G1 X5 Y20 Z0.3 F5000.0 ; Move over to prevent blob squish
G92 E0
G92 E0
G1 F1500 E-6.5
;LAYER_COUNT:58
;LAYER:0
M107
G0 F6000 X97.956 Y80.84 Z0.2
;TYPE:SKIRT
G1 F1500 E0
G1 F900 X98.611 Y80.169 E0.03119
G1 X99.32 Y79.556 E0.06236
G1 X100.08 Y79.006 E0.09356
G1 X100.883 Y78.522 E0.12475
G1 X101.725 Y78.108 E0.15595
G1 X102.643 Y77.753 E0.18869
G1 X102.863 Y77.679 E0.19641
G1 X103.764 Y77.418 E0.22761
G1 X104.684 Y77.235 E0.25881
G1 X105.616 Y77.131 E0.29
G1 X106.236 Y77.106 E0.31064
G1 X106.779 Y77.1 E0.3287
G1 X113.233 Y77.101 E0.54336
G1 X113.935 Y77.111 E0.56671
G1 X114.871 Y77.164 E0.59789
G1 X115.799 Y77.297 E0.62907
G1 X116.713 Y77.509 E0.66028
G1 X117.606 Y77.797 E0.69149
G1 X118.47 Y78.161 E0.72267
G1 X119.301 Y78.597 E0.75388
G1 X120.091 Y79.102 E0.78507
G1 X120.835 Y79.672 E0.81624
G1 X121.556 Y80.332 E0.84875
G1 X121.671 Y80.447 E0.85416
G1 X122.305 Y81.138 E0.88535
G1 X122.768 Y81.727 E0.91027
G1 X123.119 Y82.208 E0.93008
G1 X124.15 Y83.665 E0.98944
G1 X125.661 Y85.678 E1.07316
G1 X127.233 Y87.653 E1.15711
G1 X128.855 Y89.576 E1.24079
G1 X130.516 Y91.436 E1.32373
G1 X132.26 Y93.281 E1.40817
G1 X134.032 Y95.052 E1.49149
G1 X135.861 Y96.781 E1.57521
G1 X136.95 Y97.76 E1.62391
G1 X137.289 Y98.073 E1.63926
G1 X137.95 Y98.739 E1.67047
G1 X138.552 Y99.458 E1.70166
G1 X139.09 Y100.226 E1.73284
G1 X139.561 Y101.037 E1.76404
G1 X139.961 Y101.885 E1.79522
G1 X140.252 Y102.656 E1.82263
G1 X140.326 Y102.877 E1.83038
G1 X140.585 Y103.779 E1.8616
G1 X140.767 Y104.699 E1.89279
G1 X140.87 Y105.631 E1.92398
G1 X140.894 Y106.236 E1.94411
G1 X140.9 Y106.779 E1.96217
G1 X140.899 Y113.233 E2.17684
G1 X140.889 Y113.935 E2.20019
G1 X140.836 Y114.871 E2.23137
G1 X140.703 Y115.799 E2.26255
G1 X140.491 Y116.713 E2.29376
G1 X140.203 Y117.606 E2.32496
G1 X139.839 Y118.47 E2.35615
G1 X139.403 Y119.301 E2.38736
G1 X138.898 Y120.091 E2.41854
G1 X138.328 Y120.835 E2.44972
G1 X137.668 Y121.556 E2.48223
G1 X137.553 Y121.671 E2.48764
G1 X136.862 Y122.305 E2.51883
G1 X136.12 Y122.879 E2.55003
G1 X135.207 Y123.458 E2.58599
G1 X134.71 Y123.739 E2.60498
G1 X133.118 Y124.614 E2.6654
G1 X130.91 Y125.909 E2.75053
G1 X128.779 Y127.242 E2.83414
G1 X126.688 Y128.635 E2.9177
G1 X124.658 Y130.071 E3.00041
G1 X122.614 Y131.603 E3.08537
G1 X120.655 Y133.163 E3.16866
G1 X118.731 Y134.785 E3.25236
G1 X116.865 Y136.451 E3.33556
G1 X115.767 Y137.488 E3.38579
G1 X115.226 Y137.986 E3.41025
G1 X114.51 Y138.591 E3.44142
G1 X113.744 Y139.133 E3.47263
G1 X112.935 Y139.607 E3.50382
G1 X112.089 Y140.011 E3.535
G1 X111.211 Y140.341 E3.5662
G1 X110.308 Y140.596 E3.59741
G1 X109.387 Y140.772 E3.62859
G1 X108.146 Y140.884 E3.67004
G1 X107.996 Y140.889 E3.67503
G1 X107.764 Y140.894 E3.68275
G1 X107.221 Y140.9 E3.70081
G1 X100.767 Y140.899 E3.91547
G1 X100.065 Y140.889 E3.93882
G1 X99.129 Y140.836 E3.97
G1 X98.201 Y140.703 E4.00118
G1 X97.287 Y140.491 E4.03239
G1 X96.394 Y140.203 E4.0636
G1 X95.53 Y139.839 E4.09478
G1 X94.699 Y139.403 E4.12599
G1 X93.909 Y138.898 E4.15718
G1 X93.165 Y138.328 E4.18835
G1 X92.232 Y137.45 E4.23096
G1 X92.109 Y137.32 E4.23691
G1 X91.494 Y136.612 E4.26811
G1 X90.941 Y135.854 E4.29931
G1 X90.39 Y134.931 E4.33507
G1 X90.124 Y134.429 E4.35396
G1 X89.274 Y132.773 E4.41587
G1 X88.071 Y130.584 E4.49895
G1 X86.78 Y128.386 E4.58373
G1 X85.469 Y126.29 E4.66596
G1 X84.061 Y124.174 E4.75049
G1 X82.618 Y122.135 E4.83358
G1 X81.598 Y120.776 E4.89009
G1 X81.216 Y120.253 E4.91163
G1 X80.697 Y119.471 E4.94285
G1 X80.246 Y118.649 E4.97403
G1 X79.867 Y117.791 E5.00523
G1 X79.563 Y116.904 E5.03642
G1 X79.335 Y115.994 E5.06762
G1 X79.186 Y115.068 E5.09882
G1 X79.116 Y114.146 E5.12957
G1 X79.111 Y113.996 E5.13456
G1 X79.106 Y113.757 E5.14251
G1 X79.1 Y113.196 E5.16117
G1 X79.101 Y106.767 E5.375
G1 X79.111 Y106.065 E5.39835
G1 X79.164 Y105.129 E5.42953
G1 X79.297 Y104.201 E5.46071
G1 X79.509 Y103.287 E5.49192
G1 X79.797 Y102.394 E5.52313
G1 X80.161 Y101.53 E5.55431
G1 X80.597 Y100.699 E5.58552
G1 X81.102 Y99.909 E5.61671
G1 X81.672 Y99.165 E5.64788
G1 X82.3 Y98.476 E5.67889
G1 X82.421 Y98.354 E5.68461
G1 X82.793 Y97.996 E5.70178
G1 X83.63 Y97.229 E5.73954
G1 X84.22 Y96.701 E5.76587
G1 X86.036 Y94.982 E5.84904
G1 X87.821 Y93.194 E5.93307
G1 X89.531 Y91.38 E6.01599
G1 X91.214 Y89.493 E6.10008
G1 X92.85 Y87.549 E6.18459
G1 X94.411 Y85.584 E6.26806
G1 X95.934 Y83.551 E6.35255
G1 X97.037 Y82.002 E6.41579
G1 X97.208 Y81.767 E6.42546
G1 X97.36 Y81.565 E6.43387
G1 X97.956 Y80.84 E6.46508
G0 F6000 X98.265 Y81.095
G1 F900 X98.91 Y80.437 E6.49573
G1 X99.609 Y79.838 E6.52635
G1 X100.357 Y79.302 E6.55695
G1 X101.149 Y78.833 E6.58757
G1 X101.979 Y78.434 E6.6182
G1 X102.771 Y78.132 E6.64639
G1 X102.991 Y78.058 E6.65411
G1 X103.875 Y77.803 E6.68471
G1 X104.778 Y77.625 E6.71532
G1 X105.694 Y77.527 E6.74596
G1 X106.24 Y77.506 E6.76414
G1 X106.779 Y77.5 E6.78207
G1 X113.076 Y77.5 E6.9915
G1 X113.929 Y77.511 E7.01988
G1 X114.848 Y77.564 E7.05049
G1 X115.759 Y77.697 E7.08112
G1 X116.655 Y77.908 E7.11173
G1 X117.53 Y78.196 E7.14237
G1 X118.376 Y78.559 E7.17299
G1 X119.187 Y78.994 E7.2036
G1 X119.958 Y79.498 E7.23424
G1 X120.682 Y80.066 E7.26484
G1 X121.273 Y80.615 E7.29167
G1 X121.388 Y80.73 E7.29708
G1 X122.01 Y81.408 E7.32768
G1 X122.446 Y81.963 E7.35116
G1 X122.692 Y82.299 E7.36501
G1 X123.819 Y83.891 E7.42988
G1 X125.344 Y85.922 E7.51436
G1 X126.93 Y87.914 E7.59905
G1 X128.534 Y89.817 E7.68182
G1 X130.228 Y91.713 E7.76639
G1 X131.986 Y93.573 E7.85151
G1 X133.74 Y95.326 E7.93399
G1 X135.628 Y97.111 E8.02041
G1 X136.792 Y98.158 E8.07248
G1 X137.018 Y98.367 E8.08272
G1 X137.666 Y99.021 E8.11334
G1 X138.255 Y99.728 E8.14395
G1 X138.78 Y100.484 E8.17456
G1 X139.238 Y101.283 E8.20519
G1 X139.625 Y102.118 E8.2358
G1 X139.872 Y102.783 E8.2594
G1 X139.946 Y103.004 E8.26715
G1 X140.201 Y103.889 E8.29778
G1 X140.377 Y104.793 E8.32841
G1 X140.474 Y105.708 E8.35902
G1 X140.494 Y106.24 E8.37672
G1 X140.5 Y106.779 E8.39465
G1 X140.499 Y113.227 E8.60911
G1 X140.489 Y113.929 E8.63246
G1 X140.436 Y114.848 E8.66308
G1 X140.303 Y115.759 E8.6937
G1 X140.092 Y116.655 E8.72432
G1 X139.804 Y117.53 E8.75496
G1 X139.441 Y118.376 E8.78557
G1 X139.006 Y119.187 E8.81618
G1 X138.502 Y119.958 E8.84682
G1 X137.934 Y120.682 E8.87743
G1 X137.385 Y121.273 E8.90426
G1 X137.27 Y121.388 E8.90967
G1 X136.592 Y122.01 E8.94027
G1 X135.862 Y122.571 E8.97089
G1 X135.009 Y123.11 E9.00445
G1 X134.518 Y123.388 E9.02322
G1 X132.913 Y124.269 E9.08411
G1 X130.716 Y125.559 E9.16885
G1 X128.568 Y126.903 E9.25312
G1 X126.466 Y128.303 E9.33712
G1 X124.409 Y129.757 E9.42091
G1 X122.392 Y131.27 E9.50477
G1 X120.393 Y132.861 E9.58974
G1 X118.47 Y134.483 E9.67342
G1 X116.588 Y136.163 E9.75732
G1 X115.392 Y137.291 E9.812
G1 X114.956 Y137.692 E9.83171
G1 X114.252 Y138.285 E9.86232
G1 X113.499 Y138.815 E9.89295
G1 X112.703 Y139.278 E9.92358
G1 X111.87 Y139.669 E9.95418
G1 X111.006 Y139.987 E9.9848
G1 X110.117 Y140.229 E10.01545
G1 X109.211 Y140.393 E10.04607
G1 X108.133 Y140.484 E10.08205
G1 X107.76 Y140.494 E10.09446
G1 X107.221 Y140.5 E10.11239
G1 X100.773 Y140.499 E10.32685
G1 X100.071 Y140.489 E10.3502
G1 X99.152 Y140.436 E10.38082
G1 X98.241 Y140.303 E10.41144
G1 X97.345 Y140.092 E10.44206
G1 X96.47 Y139.804 E10.4727
G1 X95.624 Y139.441 E10.50332
G1 X94.813 Y139.006 E10.53393
G1 X94.042 Y138.502 E10.56456
G1 X93.318 Y137.934 E10.59517
G1 X92.522 Y137.175 E10.63175
G1 X92.399 Y137.045 E10.6377
G1 X91.796 Y136.35 E10.66831
G1 X91.256 Y135.604 E10.69894
G1 X90.743 Y134.743 E10.73227
G1 X90.48 Y134.247 E10.75094
G1 X89.623 Y132.577 E10.81337
G1 X88.415 Y130.379 E10.89679
G1 X87.131 Y128.193 E10.98112
G1 X85.808 Y126.078 E11.06409
G1 X84.393 Y123.951 E11.14906
G1 X82.932 Y121.887 E11.23317
G1 X81.918 Y120.536 E11.28935
G1 X81.539 Y120.017 E11.31072
G1 X81.03 Y119.25 E11.34134
G1 X80.59 Y118.442 E11.37194
G1 X80.221 Y117.598 E11.40258
G1 X79.927 Y116.725 E11.43322
G1 X79.71 Y115.831 E11.46381
G1 X79.572 Y114.921 E11.49443
G1 X79.516 Y114.133 E11.5207
G1 X79.511 Y113.983 E11.52569
G1 X79.506 Y113.752 E11.53338
G1 X79.5 Y113.196 E11.55187
G1 X79.501 Y106.773 E11.7655
G1 X79.511 Y106.071 E11.78885
G1 X79.564 Y105.152 E11.81947
G1 X79.697 Y104.241 E11.85009
G1 X79.908 Y103.345 E11.88071
G1 X80.196 Y102.47 E11.91135
G1 X80.559 Y101.624 E11.94196
G1 X80.994 Y100.813 E11.97257
G1 X81.498 Y100.042 E12.00321
G1 X82.066 Y99.318 E12.03382
G1 X82.584 Y98.758 E12.05919
G1 X82.705 Y98.636 E12.0649
G1 X83.063 Y98.291 E12.08144
G1 X83.897 Y97.527 E12.11906
G1 X84.479 Y97.006 E12.14504
G1 X86.311 Y95.272 E12.22894
G1 X88.113 Y93.468 E12.31375
G1 X89.838 Y91.637 E12.39741
G1 X91.517 Y89.754 E12.48132
G1 X93.153 Y87.81 E12.56583
G1 X94.728 Y85.827 E12.65006
G1 X96.26 Y83.783 E12.73502
G1 X97.363 Y82.234 E12.79827
G1 X97.528 Y82.008 E12.80757
G1 X97.68 Y81.806 E12.81598
G1 X98.265 Y81.095 E12.8466
G0 F6000 X98.574 Y81.349
G1 F900 X99.208 Y80.706 E12.87664
G1 X99.896 Y80.121 E12.90667
G1 X100.633 Y79.6 E12.93669
G1 X101.414 Y79.145 E12.96676
G1 X102.232 Y78.762 E12.9968
G1 X102.898 Y78.511 E13.02047
G1 X103.118 Y78.437 E13.02819
G1 X103.986 Y78.188 E13.05822
G1 X104.873 Y78.016 E13.08828
G1 X105.771 Y77.923 E13.1183
G1 X106.245 Y77.906 E13.13408
G1 X106.779 Y77.9 E13.15184
G1 X113.076 Y77.9 E13.36128
G1 X113.923 Y77.911 E13.38945
G1 X114.825 Y77.964 E13.41951
G1 X115.718 Y78.096 E13.44953
G1 X116.596 Y78.307 E13.47956
G1 X117.452 Y78.595 E13.5096
G1 X118.28 Y78.957 E13.53966
G1 X119.072 Y79.391 E13.5697
G1 X119.822 Y79.894 E13.59973
G1 X120.525 Y80.46 E13.62975
G1 X120.99 Y80.898 E13.651
G1 X121.105 Y81.013 E13.65641
G1 X121.715 Y81.679 E13.68644
G1 X122.123 Y82.199 E13.70843
G1 X122.369 Y82.535 E13.72228
G1 X122.466 Y82.67 E13.72781
G1 X123.518 Y84.157 E13.78839
G1 X125.013 Y86.149 E13.87123
G1 X126.596 Y88.137 E13.95575
G1 X128.262 Y90.112 E14.04169
G1 X129.94 Y91.991 E14.12548
G1 X131.678 Y93.83 E14.20964
G1 X133.483 Y95.634 E14.29452
G1 X135.327 Y97.377 E14.37891
G1 X136.415 Y98.355 E14.42757
G1 X136.746 Y98.66 E14.44254
G1 X137.382 Y99.302 E14.4726
G1 X137.958 Y99.998 E14.50264
G1 X138.47 Y100.742 E14.53268
G1 X138.914 Y101.528 E14.56271
G1 X139.287 Y102.35 E14.59273
G1 X139.493 Y102.91 E14.61258
G1 X139.567 Y103.131 E14.62033
G1 X139.816 Y104 E14.65039
G1 X139.987 Y104.886 E14.68041
G1 X140.078 Y105.785 E14.71046
G1 X140.094 Y106.245 E14.72577
G1 X140.1 Y106.779 E14.74353
G1 X140.099 Y113.221 E14.95779
G1 X140.089 Y113.923 E14.98114
G1 X140.036 Y114.825 E15.0112
G1 X139.904 Y115.718 E15.04122
G1 X139.693 Y116.596 E15.07125
G1 X139.405 Y117.452 E15.10129
G1 X139.043 Y118.28 E15.13135
G1 X138.609 Y119.072 E15.16139
G1 X138.106 Y119.822 E15.19142
G1 X137.54 Y120.525 E15.22144
G1 X137.102 Y120.99 E15.24269
G1 X136.987 Y121.105 E15.2481
G1 X136.321 Y121.715 E15.27814
G1 X135.604 Y122.264 E15.30817
G1 X134.812 Y122.763 E15.33931
G1 X134.451 Y122.968 E15.35311
G1 X132.713 Y123.924 E15.41909
G1 X130.507 Y125.218 E15.50415
G1 X128.339 Y126.574 E15.5892
G1 X126.235 Y127.976 E15.67329
G1 X124.184 Y129.426 E15.75684
G1 X122.131 Y130.965 E15.84218
G1 X120.148 Y132.544 E15.92649
G1 X118.212 Y134.177 E16.01072
G1 X116.311 Y135.874 E16.09548
G1 X115.121 Y136.997 E16.1499
G1 X114.685 Y137.398 E16.1696
G1 X113.994 Y137.979 E16.19963
G1 X113.254 Y138.497 E16.22967
G1 X112.471 Y138.947 E16.25971
G1 X111.652 Y139.327 E16.28974
G1 X110.802 Y139.632 E16.31978
G1 X109.928 Y139.861 E16.34983
G1 X109.038 Y140.012 E16.37985
G1 X108.12 Y140.084 E16.41048
G1 X107.755 Y140.094 E16.42262
G1 X107.221 Y140.1 E16.44038
G1 X100.779 Y140.099 E16.65465
G1 X100.077 Y140.089 E16.678
G1 X99.175 Y140.036 E16.70805
G1 X98.282 Y139.904 E16.73807
G1 X97.404 Y139.693 E16.76811
G1 X96.548 Y139.405 E16.79815
G1 X95.72 Y139.043 E16.8282
G1 X94.928 Y138.609 E16.85824
G1 X94.178 Y138.106 E16.88828
G1 X93.475 Y137.54 E16.91829
G1 X92.813 Y136.9 E16.94892
G1 X92.69 Y136.77 E16.95487
G1 X92.099 Y136.087 E16.98491
G1 X91.57 Y135.355 E17.01495
G1 X91.096 Y134.555 E17.04588
G1 X90.836 Y134.064 E17.06436
G1 X89.986 Y132.408 E17.12627
G1 X88.752 Y130.163 E17.21148
G1 X87.482 Y127.999 E17.29493
G1 X86.137 Y125.85 E17.37925
G1 X84.72 Y123.72 E17.46434
G1 X83.263 Y121.661 E17.54823
G1 X82.238 Y120.296 E17.60501
G1 X81.863 Y119.782 E17.62617
G1 X81.364 Y119.029 E17.65622
G1 X80.934 Y118.235 E17.68625
G1 X80.576 Y117.406 E17.71628
G1 X80.293 Y116.548 E17.74633
G1 X80.086 Y115.669 E17.77637
G1 X79.959 Y114.775 E17.8064
G1 X79.916 Y114.12 E17.82823
G1 X79.906 Y113.748 E17.84061
G1 X79.9 Y113.196 E17.85897
G1 X79.901 Y106.779 E18.0724
G1 X79.911 Y106.077 E18.09575
G1 X79.964 Y105.175 E18.1258
G1 X80.096 Y104.282 E18.15583
G1 X80.307 Y103.404 E18.18586
G1 X80.595 Y102.548 E18.2159
G1 X80.957 Y101.72 E18.24596
G1 X81.391 Y100.928 E18.27599
G1 X81.894 Y100.178 E18.30603
G1 X82.46 Y99.475 E18.33605
G1 X82.868 Y99.039 E18.35591
G1 X82.989 Y98.917 E18.36162
G1 X83.333 Y98.586 E18.3775
G1 X84.163 Y97.825 E18.41496
G1 X84.774 Y97.279 E18.44221
G1 X86.586 Y95.562 E18.52524
G1 X88.387 Y93.759 E18.61
G1 X90.126 Y91.914 E18.69432
G1 X91.823 Y90.011 E18.77913
G1 X93.471 Y88.054 E18.86422
G1 X95.046 Y86.071 E18.94845
G1 X96.566 Y84.042 E19.03277
G1 X97.688 Y82.466 E19.09712
G1 X97.848 Y82.248 E19.10611
G1 X98 Y82.046 E19.11452
G1 X98.574 Y81.349 E19.14455
G0 F6000 X106.7 Y88.7
G1 F900 X108.019 Y88.7 E19.18842
G1 X107.999 Y88.711 E19.18918
G1 X107.898 Y88.778 E19.19321
G1 X107.522 Y89.055 E19.20874
G1 X107.471 Y89.097 E19.21094
G1 X107.406 Y89.157 E19.21388
G1 X107.029 Y89.552 E19.23204
G1 X106.966 Y89.63 E19.23538
G1 X106.7 Y90.025 E19.25122
G1 X106.7 Y88.7 E19.29529
G0 F6000 X106.3 Y88.3
G1 F900 X113.7 Y88.3 E19.54141
G1 X113.7 Y95.7 E19.78754
G1 X106.3 Y95.7 E20.03366
G1 X106.3 Y88.3 E20.27979
G0 F6000 X107.677 Y89.451
G1 F900 X107.319 Y89.827 E20.29706
G1 X107.298 Y89.853 E20.29817
G1 X106.988 Y90.313 E20.31662
G1 X106.972 Y90.343 E20.31775
G1 X106.757 Y90.819 E20.33512
G1 X106.746 Y90.85 E20.33621
G1 X106.607 Y91.377 E20.35434
G1 X106.59 Y91.48 E20.35781
G1 X106.551 Y91.954 E20.37363
G1 X106.552 Y92.051 E20.37686
G1 X106.592 Y92.536 E20.39304
G1 X106.611 Y92.64 E20.39656
G1 X106.746 Y93.15 E20.41411
G1 X106.757 Y93.181 E20.4152
G1 X106.972 Y93.657 E20.43257
G1 X106.988 Y93.687 E20.4337
G1 X107.298 Y94.147 E20.45215
G1 X107.319 Y94.173 E20.45327
G1 X107.677 Y94.549 E20.47053
G1 X107.759 Y94.623 E20.47421
G1 X108.145 Y94.907 E20.49015
G1 X108.235 Y94.964 E20.49369
G1 X108.709 Y95.202 E20.51133
G1 X108.741 Y95.214 E20.51247
G1 X109.263 Y95.372 E20.53061
G1 X109.296 Y95.379 E20.53173
G1 X109.795 Y95.443 E20.54846
G1 X109.899 Y95.448 E20.55192
G1 X110.389 Y95.427 E20.56824
G1 X110.49 Y95.414 E20.57162
G1 X110.96 Y95.313 E20.58761
G1 X111.045 Y95.288 E20.59056
G1 X111.552 Y95.083 E20.60875
G1 X111.582 Y95.068 E20.60986
G1 X112.009 Y94.805 E20.62654
G1 X112.096 Y94.742 E20.63012
G1 X112.472 Y94.408 E20.64684
G1 X112.494 Y94.384 E20.64793
G1 X112.842 Y93.957 E20.66625
G1 X112.861 Y93.93 E20.66735
G1 X113.122 Y93.469 E20.68497
G1 X113.173 Y93.354 E20.68915
G1 X113.33 Y92.901 E20.7051
G1 X113.353 Y92.806 E20.70835
G1 X113.436 Y92.322 E20.72468
G1 X113.441 Y92.225 E20.72791
G1 X113.44 Y91.712 E20.74497
G1 X113.437 Y91.678 E20.74611
G1 X113.347 Y91.16 E20.7636
G1 X113.339 Y91.128 E20.76469
G1 X113.165 Y90.63 E20.78224
G1 X113.13 Y90.548 E20.7852
G1 X113.12 Y90.528 E20.78595
G1 X112.861 Y90.071 E20.80342
G1 X112.842 Y90.044 E20.80452
G1 X112.494 Y89.616 E20.82286
G1 X112.472 Y89.592 E20.82395
G1 X112.096 Y89.258 E20.84067
