;FLAVOR:Marlin
;TIME:635
;Filament used: 0.18805m
;Layer height: 0.16
;MINX:95.1
;MINY:94.456
;MINZ:0.2
;MAXX:124.9
;MAXY:124.256
;MAXZ:11.36
;Generated with Cura_SteamEngine 4.7.1
M140 S70
M105
M190 S70
M104 S220
M105
M109 S220
M82 ;absolute extrusion mode
; Ender 3 Custom Start G-code
G92 E0 ; Reset Extruder
G28 ; Home all axes
G1 Z2.0 F3000 ; Move Z Axis up little to prevent scratching of Heat Bed
G1 X0.1 Y20 Z0.3 F5000.0 ; Move to start position
G1 X0.1 Y200.0 Z0.3 F1500.0 E15 ; Draw the first line
G1 X0.4 Y200.0 Z0.3 F5000.0 ; Move to side a little
G1 X0.4 Y20 Z0.3 F1500.0 E30 ; Draw the second line
G92 E0 ; Reset Extruder
G1 Z2.0 F3000 ; Move Z Axis up little to prevent scratching of Heat Bed
G1 X5 Y20 Z0.3 F5000.0 ; Move over to prevent blob squish
G92 E0
G92 E0
G1 F1500 E-6.5
;LAYER_COUNT:58
;LAYER:0
M107
G0 F6000 X98.332 Y97.8 Z0.2
;TYPE:SKIRT
G1 F1500 E0
G1 F900 X98.444 Y97.688 E0.00527
G1 X99.135 Y97.054 E0.03646
G1 X99.877 Y96.48 E0.06766
G1 X100.666 Y95.973 E0.09885
G1 X101.494 Y95.534 E0.13002
G1 X102.358 Y95.167 E0.16125
G1 X103.249 Y94.875 E0.19243
G1 X104.162 Y94.661 E0.22362
G1 X105.09 Y94.524 E0.25482
G1 X105.851 Y94.472 E0.28019
G1 X105.999 Y94.467 E0.28512
G1 X106.236 Y94.462 E0.293
G1 X106.779 Y94.456 E0.31106
G1 X113.233 Y94.457 E0.52572
G1 X113.935 Y94.467 E0.54907
G1 X114.871 Y94.52 E0.58026
G1 X115.799 Y94.653 E0.61144
G1 X116.713 Y94.865 E0.64264
G1 X117.606 Y95.153 E0.67385
G1 X118.47 Y95.517 E0.70503
G1 X119.301 Y95.953 E0.73625
G1 X120.091 Y96.458 E0.76743
G1 X120.835 Y97.028 E0.7986
G1 X121.556 Y97.688 E0.83112
G1 X121.668 Y97.8 E0.83638
G1 X122.302 Y98.491 E0.86757
G1 X122.876 Y99.233 E0.89878
G1 X123.383 Y100.022 E0.92997
G1 X123.822 Y100.85 E0.96114
G1 X124.189 Y101.714 E0.99236
G1 X124.481 Y102.605 E1.02355
G1 X124.695 Y103.518 E1.05474
G1 X124.832 Y104.446 E1.08594
G1 X124.883 Y105.177 E1.11031
G1 X124.888 Y105.314 E1.11487
G1 X124.894 Y105.569 E1.12335
G1 X124.9 Y106.092 E1.14075
G1 X124.899 Y112.556 E1.35574
G1 X124.889 Y113.285 E1.37999
G1 X124.836 Y114.221 E1.41117
G1 X124.704 Y115.15 E1.44238
G1 X124.493 Y116.064 E1.47358
G1 X124.205 Y116.956 E1.50476
G1 X123.842 Y117.821 E1.53596
G1 X123.406 Y118.652 E1.56717
G1 X122.902 Y119.442 E1.59834
G1 X122.331 Y120.187 E1.62956
G1 X121.668 Y120.912 E1.66223
G1 X121.556 Y121.024 E1.6675
G1 X120.865 Y121.658 E1.69869
G1 X120.123 Y122.232 E1.72989
G1 X119.334 Y122.739 E1.76109
G1 X118.506 Y123.178 E1.79226
G1 X117.642 Y123.545 E1.82348
G1 X116.751 Y123.837 E1.85466
G1 X115.838 Y124.051 E1.88585
G1 X114.91 Y124.188 E1.91705
G1 X114.149 Y124.24 E1.94242
G1 X114.001 Y124.245 E1.94735
G1 X113.764 Y124.25 E1.95523
G1 X113.221 Y124.256 E1.97329
G1 X106.767 Y124.255 E2.18796
G1 X106.065 Y124.245 E2.21131
G1 X105.129 Y124.192 E2.24249
G1 X104.201 Y124.059 E2.27367
G1 X103.287 Y123.847 E2.30488
G1 X102.394 Y123.559 E2.33608
G1 X101.53 Y123.195 E2.36727
G1 X100.699 Y122.759 E2.39848
G1 X99.909 Y122.254 E2.42966
G1 X99.165 Y121.684 E2.46084
G1 X98.444 Y121.024 E2.49335
G1 X98.332 Y120.912 E2.49862
G1 X97.698 Y120.221 E2.52981
G1 X97.124 Y119.479 E2.56101
G1 X96.617 Y118.69 E2.5922
G1 X96.178 Y117.862 E2.62337
G1 X95.811 Y116.998 E2.65459
G1 X95.519 Y116.107 E2.68578
G1 X95.305 Y115.194 E2.71697
G1 X95.168 Y114.266 E2.74817
G1 X95.116 Y113.505 E2.77354
G1 X95.111 Y113.357 E2.77846
G1 X95.106 Y113.108 E2.78675
G1 X95.1 Y112.534 E2.80584
G1 X95.101 Y106.099 E3.01987
G1 X95.111 Y105.417 E3.04255
G1 X95.165 Y104.48 E3.07377
G1 X95.298 Y103.552 E3.10495
G1 X95.51 Y102.638 E3.13616
G1 X95.799 Y101.746 E3.16734
G1 X96.163 Y100.882 E3.19853
G1 X96.599 Y100.052 E3.22971
G1 X97.104 Y99.261 E3.26092
G1 X97.675 Y98.517 E3.29212
G1 X98.332 Y97.8 E3.32446
G0 F6000 X98.615 Y98.083
G1 F900 X98.727 Y97.971 E3.32973
G1 X99.405 Y97.349 E3.36033
G1 X100.135 Y96.788 E3.39095
G1 X100.911 Y96.292 E3.42159
G1 X101.727 Y95.866 E3.4522
G1 X102.577 Y95.512 E3.48283
G1 X103.455 Y95.234 E3.51346
G1 X104.353 Y95.032 E3.54407
G1 X105.266 Y94.909 E3.57471
G1 X105.864 Y94.872 E3.59464
G1 X106.012 Y94.867 E3.59957
G1 X106.24 Y94.862 E3.60715
G1 X106.779 Y94.856 E3.62508
G1 X113.076 Y94.856 E3.83452
G1 X113.929 Y94.867 E3.86289
G1 X114.848 Y94.92 E3.89351
G1 X115.759 Y95.053 E3.92413
G1 X116.655 Y95.264 E3.95475
G1 X117.53 Y95.552 E3.98538
G1 X118.376 Y95.915 E4.016
G1 X119.187 Y96.35 E4.04661
G1 X119.958 Y96.854 E4.07725
G1 X120.682 Y97.422 E4.10786
G1 X121.273 Y97.971 E4.13468
G1 X121.385 Y98.083 E4.13995
G1 X122.007 Y98.761 E4.17056
G1 X122.568 Y99.491 E4.20118
G1 X123.064 Y100.267 E4.23181
G1 X123.49 Y101.083 E4.26242
G1 X123.844 Y101.933 E4.29305
G1 X124.122 Y102.811 E4.32368
G1 X124.324 Y103.709 E4.35429
G1 X124.447 Y104.622 E4.38494
G1 X124.483 Y105.191 E4.4039
G1 X124.488 Y105.328 E4.40846
G1 X124.494 Y105.574 E4.41664
G1 X124.5 Y106.092 E4.43387
G1 X124.499 Y112.55 E4.64867
G1 X124.489 Y113.279 E4.67292
G1 X124.436 Y114.199 E4.70357
G1 X124.304 Y115.11 E4.73418
G1 X124.094 Y116.006 E4.76479
G1 X123.806 Y116.88 E4.7954
G1 X123.443 Y117.727 E4.82605
G1 X123.009 Y118.538 E4.85664
G1 X122.505 Y119.309 E4.88728
G1 X121.937 Y120.034 E4.91791
G1 X121.385 Y120.629 E4.9449
G1 X121.273 Y120.741 E4.95017
G1 X120.595 Y121.363 E4.98077
G1 X119.865 Y121.924 E5.0114
G1 X119.089 Y122.42 E5.04203
G1 X118.273 Y122.846 E5.07264
G1 X117.423 Y123.2 E5.10327
G1 X116.545 Y123.478 E5.1339
G1 X115.647 Y123.68 E5.16451
G1 X114.734 Y123.803 E5.19515
G1 X114.136 Y123.84 E5.21508
G1 X113.988 Y123.845 E5.22001
G1 X113.76 Y123.85 E5.22759
G1 X113.221 Y123.856 E5.24552
G1 X106.773 Y123.855 E5.45998
G1 X106.071 Y123.845 E5.48333
G1 X105.152 Y123.792 E5.51395
G1 X104.241 Y123.659 E5.54457
G1 X103.345 Y123.448 E5.57519
G1 X102.47 Y123.16 E5.60583
G1 X101.624 Y122.797 E5.63645
G1 X100.813 Y122.362 E5.66705
G1 X100.042 Y121.858 E5.69769
G1 X99.318 Y121.29 E5.7283
G1 X98.727 Y120.741 E5.75513
G1 X98.615 Y120.629 E5.76039
G1 X97.993 Y119.951 E5.791
G1 X97.432 Y119.221 E5.82162
G1 X96.936 Y118.445 E5.85225
G1 X96.51 Y117.629 E5.88287
G1 X96.156 Y116.779 E5.91349
G1 X95.878 Y115.901 E5.94412
G1 X95.676 Y115.003 E5.97474
G1 X95.553 Y114.09 E6.00538
G1 X95.516 Y113.492 E6.02531
G1 X95.511 Y113.344 E6.03023
G1 X95.506 Y113.103 E6.03825
G1 X95.5 Y112.534 E6.05717
G1 X95.501 Y106.105 E6.271
G1 X95.511 Y105.423 E6.29369
G1 X95.565 Y104.503 E6.32434
G1 X95.698 Y103.593 E6.35493
G1 X95.909 Y102.696 E6.38558
G1 X96.198 Y101.822 E6.4162
G1 X96.561 Y100.976 E6.44681
G1 X96.996 Y100.165 E6.47742
G1 X97.5 Y99.395 E6.50803
G1 X98.069 Y98.671 E6.53866
G1 X98.615 Y98.083 E6.56535
G0 F6000 X98.898 Y98.366
G1 F900 X99.01 Y98.254 E6.57062
G1 X99.676 Y97.644 E6.60065
G1 X100.393 Y97.095 E6.63069
G1 X101.157 Y96.613 E6.66073
G1 X101.96 Y96.199 E6.69078
G1 X102.796 Y95.859 E6.7208
G1 X103.659 Y95.593 E6.75084
G1 X104.542 Y95.405 E6.78086
G1 X105.878 Y95.272 E6.82552
G1 X106.245 Y95.262 E6.83773
G1 X106.779 Y95.256 E6.85549
G1 X113.076 Y95.256 E7.06493
G1 X113.923 Y95.267 E7.0931
G1 X114.825 Y95.32 E7.12316
G1 X115.718 Y95.452 E7.15318
G1 X116.596 Y95.663 E7.18321
G1 X117.452 Y95.951 E7.21325
G1 X118.28 Y96.313 E7.24331
G1 X119.072 Y96.747 E7.27335
G1 X119.822 Y97.25 E7.30338
G1 X120.525 Y97.816 E7.3334
G1 X120.99 Y98.254 E7.35465
G1 X121.102 Y98.366 E7.35992
G1 X121.712 Y99.032 E7.38995
G1 X122.261 Y99.749 E7.41999
G1 X122.743 Y100.513 E7.45004
G1 X123.157 Y101.316 E7.48008
G1 X123.497 Y102.152 E7.5101
G1 X123.763 Y103.015 E7.54014
G1 X123.951 Y103.898 E7.57016
G1 X124.083 Y105.206 E7.61389
G1 X124.094 Y105.58 E7.62633
G1 X124.1 Y106.092 E7.64336
G1 X124.099 Y112.545 E7.85799
G1 X124.089 Y113.274 E7.88224
G1 X124.037 Y114.175 E7.91226
G1 X123.905 Y115.069 E7.94232
G1 X123.694 Y115.947 E7.97235
G1 X123.407 Y116.803 E8.00238
G1 X123.045 Y117.631 E8.03243
G1 X122.612 Y118.423 E8.06246
G1 X122.11 Y119.174 E8.0925
G1 X121.543 Y119.877 E8.12254
G1 X121.102 Y120.346 E8.14395
G1 X120.99 Y120.458 E8.14922
G1 X120.324 Y121.068 E8.17926
G1 X119.607 Y121.617 E8.20929
G1 X118.843 Y122.099 E8.23934
G1 X118.04 Y122.513 E8.26939
G1 X117.204 Y122.853 E8.2994
G1 X116.341 Y123.119 E8.32944
G1 X115.458 Y123.307 E8.35947
G1 X114.122 Y123.44 E8.40412
G1 X113.755 Y123.45 E8.41633
G1 X113.221 Y123.456 E8.4341
G1 X106.779 Y123.455 E8.64836
G1 X106.077 Y123.445 E8.67171
G1 X105.175 Y123.392 E8.70176
G1 X104.282 Y123.26 E8.73178
G1 X103.404 Y123.049 E8.76182
G1 X102.548 Y122.761 E8.79186
G1 X101.72 Y122.399 E8.82191
G1 X100.928 Y121.965 E8.85195
G1 X100.178 Y121.462 E8.88199
G1 X99.475 Y120.896 E8.91201
G1 X99.01 Y120.458 E8.93325
G1 X98.898 Y120.346 E8.93852
G1 X98.288 Y119.68 E8.96856
G1 X97.739 Y118.963 E8.99859
G1 X97.257 Y118.199 E9.02864
G1 X96.843 Y117.396 E9.05869
G1 X96.503 Y116.56 E9.08871
G1 X96.237 Y115.697 E9.11874
G1 X96.049 Y114.814 E9.14877
G1 X95.916 Y113.478 E9.19342
G1 X95.911 Y113.33 E9.19835
G1 X95.906 Y113.099 E9.20603
G1 X95.9 Y112.534 E9.22483
G1 X95.901 Y106.11 E9.43849
G1 X95.911 Y105.428 E9.46118
G1 X95.964 Y104.527 E9.49119
G1 X96.097 Y103.634 E9.52122
G1 X96.308 Y102.756 E9.55126
G1 X96.596 Y101.9 E9.5813
G1 X96.959 Y101.073 E9.61134
G1 X97.393 Y100.281 E9.64137
G1 X97.896 Y99.531 E9.67141
G1 X98.463 Y98.828 E9.70145
G1 X98.898 Y98.366 E9.72255
G0 F6000 X111.983 Y106.056
G1 F900 X113.3 Y106.056 E9.76636
G1 X113.3 Y106.872 E9.7935
G1 X113.218 Y106.861 E9.79625
G1 X112.932 Y106.861 E9.80576
G1 X112.825 Y106.742 E9.81108
G1 X112.716 Y106.628 E9.81633
G1 X112.598 Y106.515 E9.82176
G1 X112.464 Y106.398 E9.82768
G1 X112.336 Y106.296 E9.83312
G1 X112.185 Y106.187 E9.83932
G1 X112.064 Y106.106 E9.84416
G1 X111.983 Y106.056 E9.84733
G0 F6000 X111.73 Y106.37
G1 F900 X111.594 Y106.296 E9.85248
G1 X111.445 Y106.222 E9.85801
G1 X111.306 Y106.161 E9.86306
G1 X111.176 Y106.113 E9.86767
G1 X111.047 Y106.068 E9.87221
G1 X110.861 Y106.013 E9.87866
G1 X110.591 Y105.956 E9.88784
G1 X110.292 Y105.917 E9.89787
G1 X110.141 Y105.908 E9.9029
G1 X110.005 Y105.906 E9.90743
G1 X109.855 Y105.909 E9.91242
G1 X109.7 Y105.92 E9.91758
G1 X109.523 Y105.938 E9.9235
G1 X109.491 Y105.945 E9.92459
G1 X109.403 Y105.958 E9.92755
G1 X109.233 Y105.992 E9.93332
G1 X109.197 Y106.003 E9.93457
G1 X109.113 Y106.022 E9.93743
G1 X108.939 Y106.072 E9.94345
G1 X108.696 Y106.161 E9.95206
G1 X108.531 Y106.233 E9.95805
G1 X108.399 Y106.3 E9.96297
G1 X108.264 Y106.375 E9.96811
G1 X108.147 Y106.447 E9.97268
G1 X108.023 Y106.529 E9.97762
G1 X107.903 Y106.615 E9.98253
G1 X107.781 Y106.715 E9.98778
G1 X107.666 Y106.817 E9.99289
G1 X107.559 Y106.919 E9.99781
G1 X107.459 Y107.023 E10.00261
G1 X107.355 Y107.14 E10.00781
G1 X107.256 Y107.263 E10.01307
G1 X107.165 Y107.39 E10.01826
G1 X107.019 Y107.617 E10.02724
G1 X106.937 Y107.769 E10.03298
G1 X106.873 Y107.898 E10.03777
G1 X106.814 Y108.028 E10.04252
G1 X106.756 Y108.18 E10.04793
G1 X106.71 Y108.314 E10.05264
G1 X106.657 Y108.498 E10.05901
G1 X106.595 Y108.787 E10.06884
G1 X106.578 Y108.913 E10.07307
G1 X106.559 Y109.082 E10.07873
G1 X106.552 Y109.22 E10.08333
G1 X106.55 Y109.362 E10.08805
G1 X106.552 Y109.494 E10.09244
G1 X106.561 Y109.647 E10.09754
G1 X106.58 Y109.823 E10.10342
G1 X106.59 Y109.875 E10.10519
G1 X106.602 Y109.953 E10.10781
G1 X106.636 Y110.123 E10.11358
G1 X106.643 Y110.148 E10.11444
G1 X106.661 Y110.229 E10.1172
G1 X106.711 Y110.404 E10.12325
G1 X106.759 Y110.539 E10.12802
G1 X106.814 Y110.68 E10.13305
G1 X106.87 Y110.807 E10.13767
G1 X106.944 Y110.956 E10.1432
G1 X107.016 Y111.087 E10.14817
G1 X107.09 Y111.208 E10.15289
G1 X107.173 Y111.333 E10.15788
G1 X107.259 Y111.453 E10.16279
G1 X107.359 Y111.575 E10.16804
G1 X107.461 Y111.69 E10.17315
G1 X107.557 Y111.791 E10.17779
G1 X107.667 Y111.896 E10.18284
G1 X107.785 Y112 E10.18808
G1 X107.902 Y112.095 E10.19309
G1 X108.028 Y112.187 E10.19828
G1 X108.26 Y112.336 E10.20745
G1 X108.409 Y112.418 E10.21311
G1 X108.554 Y112.488 E10.21846
G1 X108.682 Y112.544 E10.22311
G1 X108.813 Y112.595 E10.22778
G1 X108.96 Y112.645 E10.23295
G1 X109.108 Y112.688 E10.23807
G1 X109.249 Y112.724 E10.24291
G1 X109.431 Y112.761 E10.24909
G1 X109.71 Y112.795 E10.25844
G1 X109.859 Y112.804 E10.2634
G1 X110.002 Y112.806 E10.26816
G1 X110.145 Y112.803 E10.27292
G1 X110.3 Y112.792 E10.27809
G1 X110.477 Y112.774 E10.284
G1 X110.51 Y112.767 E10.28513
G1 X110.595 Y112.754 E10.28799
G1 X110.743 Y112.725 E10.293
G1 X110.89 Y112.688 E10.29804
G1 X111.047 Y112.644 E10.30347
G1 X111.186 Y112.595 E10.30837
G1 X111.329 Y112.541 E10.31345
G1 X111.381 Y112.515 E10.31539
G1 X111.448 Y112.486 E10.31781
G1 X111.596 Y112.414 E10.32329
G1 X111.736 Y112.337 E10.3286
G1 X111.853 Y112.265 E10.33317
G1 X111.977 Y112.183 E10.33812
G1 X112.097 Y112.097 E10.34303
G1 X112.219 Y111.997 E10.34827
G1 X112.334 Y111.895 E10.35339
G1 X112.441 Y111.793 E10.3583
G1 X112.541 Y111.689 E10.3631
G1 X112.645 Y111.572 E10.36831
G1 X112.744 Y111.448 E10.37359
G1 X112.836 Y111.32 E10.37883
G1 X112.983 Y111.09 E10.38791
G1 X113.059 Y110.949 E10.39323
G1 X113.126 Y110.814 E10.39825
G1 X113.192 Y110.668 E10.40358
G1 X113.287 Y110.408 E10.41278
G1 X113.34 Y110.228 E10.41902
G1 X113.406 Y109.924 E10.42937
G1 X113.44 Y109.637 E10.43898
G1 X113.448 Y109.492 E10.44381
G1 X113.45 Y109.348 E10.4486
G1 X113.447 Y109.211 E10.45316
G1 X113.436 Y109.051 E10.4585
G1 X113.417 Y108.872 E10.46448
G1 X113.411 Y108.843 E10.46547
G1 X113.401 Y108.772 E10.46785
G1 X113.369 Y108.612 E10.47328
G1 X113.335 Y108.475 E10.47797
G1 X113.614 Y107.883 E10.49974
G1 X113.629 Y107.759 E10.5039
G1 X113.602 Y107.69 E10.50636
G1 X113.387 Y107.353 E10.51966
G1 X113.29 Y107.274 E10.52382
G1 X113.218 Y107.261 E10.52625
G1 X112.742 Y107.26 E10.54208
G1 X112.634 Y107.128 E10.54775
G1 X112.536 Y107.019 E10.55263
G1 X112.437 Y106.915 E10.5574
G1 X112.333 Y106.815 E10.5622
G1 X112.214 Y106.71 E10.56748
G1 X112.101 Y106.619 E10.57231
G1 X111.962 Y106.519 E10.578
G1 X111.853 Y106.446 E10.58237
G1 X111.73 Y106.37 E10.58718
G0 F6000 X113.7 Y105.656
G1 F900 X113.7 Y113.056 E10.8333
G1 X106.3 Y113.056 E11.07943
G1 X106.3 Y105.656 E11.32555
G1 X113.7 Y105.656 E11.57168
G0 F6000 X113.3 Y111.338
G1 F900 X113.3 Y112.656 E11.61551
G1 X111.982 Y112.656 E11.65935
G1 X112.073 Y112.599 E11.66292
G1 X112.211 Y112.508 E11.66842
G1 X112.348 Y112.408 E11.67406
G1 X112.485 Y112.296 E11.67995
G1 X112.609 Y112.185 E11.68548
G1 X112.728 Y112.072 E11.69094
G1 X112.841 Y111.954 E11.69637
G1 X112.956 Y111.823 E11.70217
G1 X113.049 Y111.708 E11.70709
G1 X113.173 Y111.536 E11.71414
G1 X113.3 Y111.338 E11.72197
G1 F1500 E5.22197
G0 F6000 X110.801 Y112.365
G0 X109.868 Y112.468
G0 X109.106 Y112.315
G0 X106.7 Y111.338
G1 F1500 E11.72197
G1 F900 X106.756 Y111.429 E11.72552
G1 X106.848 Y111.567 E11.73104
G1 X106.948 Y111.704 E11.73668
G1 X107.06 Y111.841 E11.74256
G1 X107.17 Y111.965 E11.74808
G1 X107.28 Y112.08 E11.75337
G1 X107.402 Y112.196 E11.75897
G1 X107.514 Y112.295 E11.76394
G1 X107.664 Y112.417 E11.77037
G1 X107.779 Y112.502 E11.77513
G1 X108.017 Y112.656 E11.78456
G1 X106.7 Y112.656 E11.82836
G1 X106.7 Y111.338 E11.8722
G1 F1500 E5.3722
G0 F6000 X106.984 Y108.574
G0 X108.018 Y106.056
G1 F1500 E11.8722
G1 F900 X107.927 Y106.113 E11.87577
G1 X107.789 Y106.204 E11.88127
G1 X107.652 Y106.304 E11.88691
G1 X107.515 Y106.416 E11.89279
G1 X107.391 Y106.527 E11.89833
G1 X107.272 Y106.64 E11.90379
G1 X107.159 Y106.758 E11.90922
G1 X107.044 Y106.889 E11.91502
G1 X106.933 Y107.028 E11.92093
G1 X106.829 Y107.173 E11.92687
G1 X106.7 Y107.373 E11.93478
G1 X106.7 Y106.056 E11.97859
G1 X108.018 Y106.056 E12.02242
G1 F1500 E5.52242
;MESH:1x1-lego-block-parametric-v1.FCStd
G0 F6000 X108.924 Y107.622
G0 X109.194 Y109.705
G0 X109.432 Y110.001
G0 X110.107 Y110.4
;TYPE:WALL-INNER
G1 F1500 E12.02242
G1 F900 X109.999 Y110.406 E12.02602
G1 X109.929 Y110.403 E12.02835
G1 X109.826 Y110.391 E12.0318
G1 X109.764 Y110.379 E12.0339
G1 X109.689 Y110.359 E12.03648
G1 X109.637 Y110.341 E12.03831
G1 X109.573 Y110.315 E12.04061
G1 X109.478 Y110.267 E12.04415
G1 X109.389 Y110.21 E12.04767
G1 X109.332 Y110.165 E12.05008
G1 X109.258 Y110.098 E12.0534
G1 X109.161 Y109.989 E12.05826
G1 X109.11 Y109.912 E12.06133
G1 X109.071 Y109.842 E12.06399
G1 X109.034 Y109.767 E12.06677
G1 X108.994 Y109.66 E12.07057
